icon/lg/laravel.svg

<?xml version="1.0" encoding="UTF-8"?>
<svg viewBox="0 0 256 264" version="1.1" xmlns="http://www.w3.org/2000/svg" xmlns:xlink="http://www.w3.org/1999/xlink" preserveAspectRatio="xMidYMid" height="1em" width="1em">
  <g>
    <path d="M255.855641,59.619717 C255.950565,59.9710596 256,60.3333149 256,60.6972536 L256,117.265345 C256,118.743206 255.209409,120.108149 253.927418,120.843385 L206.448786,148.178786 L206.448786,202.359798 C206.448786,203.834322 205.665123,205.195421 204.386515,205.937838 L105.27893,262.990563 C105.05208,263.119455 104.804608,263.201946 104.557135,263.289593 C104.464333,263.320527 104.376687,263.377239 104.278729,263.403017 C103.585929,263.58546 102.857701,263.58546 102.164901,263.403017 C102.051476,263.372083 101.948363,263.310215 101.840093,263.26897 C101.613244,263.186479 101.376082,263.1143 101.159544,262.990563 L2.07258227,205.937838 C0.7913718,205.201819 0,203.837372 0,202.359798 L0,32.6555248 C0,32.2843161 0.0515567729,31.9234187 0.144358964,31.5728326 C0.175293028,31.454252 0.24747251,31.3459828 0.288717928,31.2274022 C0.366053087,31.0108638 0.438232569,30.7891697 0.55165747,30.5880982 C0.628992629,30.4540506 0.742417529,30.3457814 0.83521972,30.2220451 C0.953800298,30.0570635 1.06206952,29.8869261 1.20127281,29.7425672 C1.31985339,29.6239866 1.4745237,29.5363401 1.60857131,29.4332265 C1.75808595,29.3094903 1.89213356,29.1754427 2.06227091,29.0774848 L2.06742659,29.0774848 L51.6134853,0.551122364 C52.8901903,-0.183535768 54.4613221,-0.183535768 55.7380271,0.551122364 L105.284086,29.0774848 L105.294397,29.0774848 C105.459379,29.1805983 105.598582,29.3094903 105.748097,29.4280708 C105.882144,29.5311844 106.031659,29.6239866 106.15024,29.7374115 C106.294599,29.8869261 106.397712,30.0570635 106.521448,30.2220451 C106.609095,30.3457814 106.727676,30.4540506 106.799855,30.5880982 C106.918436,30.7943253 106.985459,31.0108638 107.06795,31.2274022 C107.109196,31.3459828 107.181375,31.454252 107.212309,31.5779883 C107.307234,31.9293308 107.355765,32.2915861 107.356668,32.6555248 L107.356668,138.651094 L148.643332,114.878266 L148.643332,60.6920979 C148.643332,60.3312005 148.694889,59.9651474 148.787691,59.619717 C148.823781,59.4959808 148.890804,59.3877116 148.93205,59.269131 C149.014541,59.0525925 149.08672,58.8308984 149.200145,58.629827 C149.27748,58.4957794 149.390905,58.3875102 149.478552,58.2637739 C149.602288,58.0987922 149.705401,57.9286549 149.84976,57.7842959 C149.968341,57.6657153 150.117856,57.5780688 150.251903,57.4749553 C150.406573,57.351219 150.540621,57.2171714 150.705603,57.1192136 L150.710758,57.1192136 L200.261973,28.5928511 C201.538395,27.8571345 203.110093,27.8571345 204.386515,28.5928511 L253.932573,57.1192136 C254.107866,57.2223271 254.241914,57.351219 254.396584,57.4697996 C254.525476,57.5729132 254.674991,57.6657153 254.793572,57.7791402 C254.93793,57.9286549 255.041044,58.0987922 255.16478,58.2637739 C255.257582,58.3875102 255.371007,58.4957794 255.443187,58.629827 C255.561767,58.8308984 255.628791,59.0525925 255.711282,59.269131 C255.757683,59.3877116 255.824707,59.4959808 255.855641,59.619717 Z M247.740605,114.878266 L247.740605,67.8378666 L230.402062,77.8192579 L206.448786,91.6106946 L206.448786,138.651094 L247.745761,114.878266 L247.740605,114.878266 Z M198.194546,199.97272 L198.194546,152.901386 L174.633101,166.357704 L107.351512,204.757188 L107.351512,252.27191 L198.194546,199.97272 Z M8.25939501,39.7961379 L8.25939501,199.97272 L99.0921175,252.266755 L99.0921175,204.762344 L51.6392637,177.906421 L51.6237967,177.89611 L51.603174,177.885798 C51.443348,177.792996 51.3093004,177.658949 51.1597857,177.545524 C51.0308938,177.44241 50.8813791,177.359919 50.7679542,177.246494 L50.7576429,177.231027 C50.6235953,177.102135 50.5307931,176.942309 50.4173682,176.79795 C50.3142546,176.658747 50.1905184,176.540167 50.1080276,176.395808 L50.1028719,176.380341 C50.0100697,176.22567 49.9533572,176.040066 49.8863334,175.864773 C49.8193096,175.710103 49.7316631,175.565744 49.6904177,175.400762 L49.6904177,175.395606 C49.6388609,175.19969 49.6285496,174.993463 49.6079269,174.792392 C49.5873041,174.637722 49.5460587,174.483051 49.5460587,174.328381 L49.5460587,174.31807 L49.5460587,63.5689658 L25.5979377,49.7723734 L8.25939501,39.8012935 L8.25939501,39.7961379 Z M53.6809119,8.89300821 L12.3994039,32.6555248 L53.6706006,56.4180414 L94.9469529,32.6503692 L53.6706006,8.89300821 L53.6809119,8.89300821 Z M75.1491521,157.19091 L99.0972731,143.404629 L99.0972731,39.7961379 L81.7587304,49.7775291 L57.8054537,63.5689658 L57.8054537,167.177457 L75.1491521,157.19091 Z M202.324244,36.934737 L161.047891,60.6972536 L202.324244,84.4597702 L243.59544,60.6920979 L202.324244,36.934737 Z M198.194546,91.6106946 L174.24127,77.8192579 L156.902727,67.8378666 L156.902727,114.878266 L180.850848,128.664547 L198.194546,138.651094 L198.194546,91.6106946 Z M103.216659,197.616575 L163.759778,163.052915 L194.023603,145.781396 L152.778185,122.034346 L105.289242,149.374903 L62.0073307,174.292291 L103.216659,197.616575 Z" fill="#FF2D20"/>
  </g>
</svg>

<svg width="256" height="264" xmlns="http://www.w3.org/2000/svg" preserveAspectRatio="xMidYMid"><path d="M255.856 59.62c.095.351.144.713.144 1.077v56.568c0 1.478-.79 2.843-2.073 3.578L206.45 148.18v54.18a4.135 4.135 0 0 1-2.062 3.579l-99.108 57.053c-.227.128-.474.21-.722.299-.093.03-.18.087-.278.113a4.15 4.15 0 0 1-2.114 0c-.114-.03-.217-.093-.325-.134-.227-.083-.464-.155-.68-.278L2.073 205.938A4.128 4.128 0 0 1 0 202.36V32.656c0-.372.052-.733.144-1.083.031-.119.103-.227.145-.346.077-.216.15-.438.263-.639.077-.134.19-.242.283-.366.119-.165.227-.335.366-.48.119-.118.274-.206.408-.309.15-.124.283-.258.453-.356h.005L51.613.551a4.135 4.135 0 0 1 4.125 0l49.546 28.526h.01c.165.104.305.232.454.351.134.103.284.196.402.31.145.149.248.32.371.484.088.124.207.232.279.366.118.206.185.423.268.64.041.118.113.226.144.35.095.351.144.714.145 1.078V138.65l41.286-23.773V60.692c0-.36.052-.727.145-1.072.036-.124.103-.232.144-.35.083-.217.155-.44.268-.64.077-.134.19-.242.279-.366.123-.165.226-.335.37-.48.12-.118.269-.206.403-.309.155-.124.289-.258.454-.356h.005l49.551-28.526a4.13 4.13 0 0 1 4.125 0l49.546 28.526c.175.103.309.232.464.35.128.104.278.197.397.31.144.15.247.32.37.485.094.124.207.232.28.366.118.2.185.423.267.64.047.118.114.226.145.35Zm-8.115 55.258v-47.04l-17.339 9.981-23.953 13.792v47.04l41.297-23.773h-.005Zm-49.546 85.095V152.9l-23.562 13.457-67.281 38.4v47.514l90.843-52.3ZM8.259 39.796v160.177l90.833 52.294v-47.505L51.64 177.906l-.015-.01-.02-.01c-.16-.093-.295-.227-.444-.34-.13-.104-.279-.186-.392-.3l-.01-.015c-.134-.129-.227-.289-.34-.433-.104-.14-.227-.258-.31-.402l-.005-.016c-.093-.154-.15-.34-.217-.515-.067-.155-.154-.3-.196-.464v-.005c-.051-.196-.061-.403-.082-.604-.02-.154-.062-.309-.062-.464V63.57L25.598 49.772l-17.339-9.97v-.006ZM53.681 8.893 12.399 32.656l41.272 23.762L94.947 32.65 53.671 8.893h.01Zm21.468 148.298 23.948-13.786V39.796L81.76 49.778 57.805 63.569v103.608l17.344-9.986ZM202.324 36.935l-41.276 23.762 41.276 23.763 41.271-23.768-41.27-23.757Zm-4.13 54.676-23.953-13.792-17.338-9.981v47.04l23.948 13.787 17.344 9.986v-47.04Zm-94.977 106.006 60.543-34.564 30.264-17.272-41.246-23.747-47.489 27.34-43.282 24.918 41.21 23.325Z" fill="#FF2D20"/></svg>
